X: 34
T: Kæde-Vals
B:[[Notböcker/Melodier til gamle danske Almuedanse for Violin solo]]
O:Danmark
Z:Søren Bak Vestergaard
M: 3/4
L: 1/8
K: G
d2|Bdgfge|edBDBD|dcADAD|edBDBD|\
Bdgfge|edBDBD|dcADAD|G2 z2:| |:D2|DFADFA|\
DGBDGB|FAcDFA|BdgBdg|DFADFA|DGBDGB|\
FAcedF|G2 z2:| |:(Bc)|d2 (Bg)(Bg)|d2 (Bg)(Bg)|c2 (Af)(Af)|\
c2 (Af)(Af)|d2 (Bg)(Bg)|d2 (Bg)(Bg)|c2 (Af)(Af)|g2 z2:|

